X:77
T:The Hills of Curragh
B:Terry "Cuz" Teahan "Sliabh Luachra on Parade" 1980
Z:Patrick Cavanagh
M:2/4
L:1/8
R:Polka
K:D
| DF/E/ DF | AF DF | GB/A/ GE | B/c/ B/A/ FE | 
DF/E/ DF | AF DF | AB/A/ GC | ED D2 :| 
| d2 cB | BA FA | EG/F/ GE | B/c/ B/A/ FD | 
d2 cB | BA FA | B>A GC | ED D2 :|| 

